X: 1
T: G\aangl\aat
R: g\aangl\aat, snoa
M: C|
L: 1/8
Z: John Chambers <jc@trillian.mit.edu>
K: D
de |:\
"D"f2d2 d2Ad | "D"f2d2 dfaf | "A7"g2e2 cAce |\
[1,3 "A7"a^gab a=gfe :|[2,4 "D"d2d2 d2 :|
|: df |\
"D"a2a2 "G"gfgb | "D"a2ag f2fa | "A7"g2e2 cAce |\
[1,3 "D"dcde f2 :|[2,4 "D"d2d2 d2 :|
